X:1
T: Rose in the Heather    (j-13)
I: Rose in the Heather  J-13    D       jig
%C: J-13
M: 6/8
Z: Transcribed to abc by Mary Lou Knack, modified by Debby Knight
R: jig
K: D
"D"F3 "A"EFE| "D"DFA BAF| ABd "A"ede| "D"fdB AFE|
"D"F2D "A"EDB,| "D"DFA BAF| AdB "A"AFE| "D"FDC D3 :|
|:"D"fdB ABd| faa afd| "G"gfg "D"fed| "Em"Bee "A"efg|
"D"fdB ABd| faa afa| "G"baf "A"gfe| "D"fdc d3 :|

